X:2613
L:1/8
M:2/4
K:F
 ccdd | ccA z | ccdd | ccA z | ccdd | ccA z | ccdd | ccA z | c2 B2 | A4 |]

